X:401
T: Yuankan huanghe shi yitiao xian
N: C1436
O: China,Qinghai, Dongbu)
S: I, 252]
R: Shange, Huar, Sanhuasao jing]
M: 3/8
L: 1/16
K: Bb
c2c4 | G2G4 | c2d2f2 | g6- | g6 |
c2d2f2 | g2f2fg | fdd2z2 | G6- | G6 |
c2d2f2 | f2g2gf | d2dfdc | c2B2GB | c2c2B2 | G2G4 | G6- | G6

@@@ Tune index: 6402
